X:1
T:I Can Not Call Her Mother
M:2/4
L:1/8
K:D
 F| FB BB|^A-c ce| dB ^AB| c3 E| DF BB|^A-c FE| DB, C^A,| B,3||
